src/lib/packages/icons/src/assets/line/face-eyes-times.svg

<svg width="24" height="24" viewBox="0 0 24 24" fill="none" xmlns="http://www.w3.org/2000/svg">
<path d="M12 1.25C6.07 1.25 1.25 6.07 1.25 12C1.25 17.93 6.07 22.75 12 22.75C17.93 22.75 22.75 17.93 22.75 12C22.75 6.07 17.93 1.25 12 1.25ZM12 21.25C6.9 21.25 2.75 17.1 2.75 12C2.75 6.9 6.9 2.75 12 2.75C17.1 2.75 21.25 6.9 21.25 12C21.25 17.1 17.1 21.25 12 21.25ZM12 13.25C9.66 13.25 7.63999 14.99 7.29999 17.3C7.24999 17.67 7.35003 18.03 7.59003 18.31C7.83003 18.58 8.17003 18.74 8.53003 18.74H15.45C15.81 18.74 16.16 18.58 16.39 18.31C16.63 18.03 16.74 17.66 16.68 17.3C16.34 14.99 14.32 13.25 11.98 13.25H12ZM8.84003 17.25C9.18003 15.81 10.49 14.75 12 14.75C13.51 14.75 14.82 15.81 15.16 17.25H8.83002H8.84003ZM16.53 9.53L16.06 10L16.53 10.47C16.82 10.76 16.82 11.24 16.53 11.53C16.38 11.68 16.19 11.75 16 11.75C15.81 11.75 15.62 11.68 15.47 11.53L15 11.06L14.53 11.53C14.38 11.68 14.19 11.75 14 11.75C13.81 11.75 13.62 11.68 13.47 11.53C13.18 11.24 13.18 10.76 13.47 10.47L13.94 10L13.47 9.53C13.18 9.24 13.18 8.76 13.47 8.47C13.76 8.18 14.24 8.18 14.53 8.47L15 8.94L15.47 8.47C15.76 8.18 16.24 8.18 16.53 8.47C16.82 8.76 16.82 9.24 16.53 9.53ZM7.46997 10.47L7.94 10L7.46997 9.53C7.17997 9.24 7.17997 8.76 7.46997 8.47C7.75997 8.18 8.24003 8.18 8.53003 8.47L9 8.94L9.46997 8.47C9.75997 8.18 10.24 8.18 10.53 8.47C10.82 8.76 10.82 9.24 10.53 9.53L10.06 10L10.53 10.47C10.82 10.76 10.82 11.24 10.53 11.53C10.38 11.68 10.19 11.75 10 11.75C9.81 11.75 9.61997 11.68 9.46997 11.53L9 11.06L8.53003 11.53C8.38003 11.68 8.19 11.75 8 11.75C7.81 11.75 7.61997 11.68 7.46997 11.53C7.17997 11.24 7.17997 10.76 7.46997 10.47Z" fill="currentColor"/>
</svg>

<svg xmlns="http://www.w3.org/2000/svg" width="24" height="24" fill="none"><path fill="currentColor" d="M12 1.25C6.07 1.25 1.25 6.07 1.25 12S6.07 22.75 12 22.75 22.75 17.93 22.75 12 17.93 1.25 12 1.25Zm0 20c-5.1 0-9.25-4.15-9.25-9.25S6.9 2.75 12 2.75 21.25 6.9 21.25 12 17.1 21.25 12 21.25Zm0-8c-2.34 0-4.36 1.74-4.7 4.05-.05.37.05.73.29 1.01.24.27.58.43.94.43h6.92a1.245 1.245 0 0 0 1.23-1.44c-.34-2.31-2.36-4.05-4.7-4.05H12Zm-3.16 4c.34-1.44 1.65-2.5 3.16-2.5 1.51 0 2.82 1.06 3.16 2.5H8.83h.01Zm7.69-7.72-.47.47.47.47c.29.29.29.77 0 1.06-.15.15-.34.22-.53.22s-.38-.07-.53-.22l-.47-.47-.47.47c-.15.15-.34.22-.53.22s-.38-.07-.53-.22a.754.754 0 0 1 0-1.06l.47-.47-.47-.47a.754.754 0 0 1 0-1.06c.29-.29.77-.29 1.06 0l.47.47.47-.47c.29-.29.77-.29 1.06 0 .29.29.29.77 0 1.06Zm-9.06.94.47-.47-.47-.47a.754.754 0 0 1 0-1.06c.29-.29.77-.29 1.06 0l.47.47.47-.47c.29-.29.77-.29 1.06 0 .29.29.29.77 0 1.06l-.47.47.47.47c.29.29.29.77 0 1.06-.15.15-.34.22-.53.22s-.38-.07-.53-.22L9 11.06l-.47.47c-.15.15-.34.22-.53.22s-.38-.07-.53-.22a.754.754 0 0 1 0-1.06Z"/></svg>
